Simply-Orange-Circles/scalable/actions/view-calendar-wedding-anniversary.svg

<svg xmlns="http://www.w3.org/2000/svg" width="24" height="24" id="svg7"><defs id="defs3"><style id="current-color-scheme"></style></defs><path d="M9.25 3.75A8.25 8.25 0 0 0 1 12a8.25 8.25 0 0 0 8.25 8.25 8.25 8.25 0 0 0 2.75-.48 8.25 8.25 0 0 0 2.75.48A8.25 8.25 0 0 0 23 12a8.25 8.25 0 0 0-8.25-8.25 8.25 8.25 0 0 0-2.75.48 8.25 8.25 0 0 0-2.75-.48zm-.68 2.8A8.25 8.25 0 0 0 6.5 12a8.25 8.25 0 0 0 2.07 5.45A5.5 5.5 0 0 1 3.75 12a5.5 5.5 0 0 1 4.82-5.45zm6.86 0A5.5 5.5 0 0 1 20.25 12a5.5 5.5 0 0 1-4.82 5.45A8.25 8.25 0 0 0 17.5 12a8.25 8.25 0 0 0-2.07-5.45zm-3.42.7A5.5 5.5 0 0 1 14.75 12 5.5 5.5 0 0 1 12 16.76 5.5 5.5 0 0 1 9.25 12a5.5 5.5 0 0 1 2.76-4.76z" id="path5" color="#dfdfdf" fill="#ff7f2a" stroke-width="1.38"/></svg>

<?xml version="1.0" encoding="UTF-8" standalone="no"?>
<svg
   xmlns:dc="http://purl.org/dc/elements/1.1/"
   xmlns:cc="http://creativecommons.org/ns#"
   xmlns:rdf="http://www.w3.org/1999/02/22-rdf-syntax-ns#"
   xmlns:svg="http://www.w3.org/2000/svg"
   xmlns="http://www.w3.org/2000/svg"
   xmlns:sodipodi="http://sodipodi.sourceforge.net/DTD/sodipodi-0.dtd"
   xmlns:inkscape="http://www.inkscape.org/namespaces/inkscape"
   width="24"
   height="24"
   id="svg7"
   version="1.1"
   sodipodi:docname="view-calendar-wedding-anniversary.svg"
   inkscape:version="0.92.4 (5da689c313, 2019-01-14)">
  <metadata
     id="metadata8">
    <rdf:RDF>
      <cc:Work
         rdf:about="">
        <dc:format>image/svg+xml</dc:format>
        <dc:type
           rdf:resource="http://purl.org/dc/dcmitype/StillImage" />
        <dc:title></dc:title>
      </cc:Work>
    </rdf:RDF>
  </metadata>
  <sodipodi:namedview
     pagecolor="#ffffff"
     bordercolor="#666666"
     borderopacity="1"
     objecttolerance="10"
     gridtolerance="10"
     guidetolerance="10"
     inkscape:pageopacity="0"
     inkscape:pageshadow="2"
     inkscape:window-width="1078"
     inkscape:window-height="480"
     id="namedview6"
     showgrid="false"
     inkscape:zoom="9.8333333"
     inkscape:cx="-0.81355932"
     inkscape:cy="12"
     inkscape:window-x="0"
     inkscape:window-y="28"
     inkscape:window-maximized="0"
     inkscape:current-layer="svg7" />
  <defs
     id="defs3">
    <style
       id="current-color-scheme" />
  </defs>
  <path
     d="M 9.25,3.75 A 8.25,8.25 0 0 0 1,12 8.25,8.25 0 0 0 9.25,20.25 8.25,8.25 0 0 0 12,19.77 8.25,8.25 0 0 0 14.75,20.25 8.25,8.25 0 0 0 23,12 8.25,8.25 0 0 0 14.75,3.75 8.25,8.25 0 0 0 12,4.23 8.25,8.25 0 0 0 9.25,3.75 Z M 8.57,6.55 A 8.25,8.25 0 0 0 6.5,12 8.25,8.25 0 0 0 8.57,17.45 5.5,5.5 0 0 1 3.75,12 5.5,5.5 0 0 1 8.57,6.55 Z m 6.86,0 A 5.5,5.5 0 0 1 20.25,12 5.5,5.5 0 0 1 15.43,17.45 8.25,8.25 0 0 0 17.5,12 8.25,8.25 0 0 0 15.43,6.55 Z m -3.42,0.7 A 5.5,5.5 0 0 1 14.75,12 5.5,5.5 0 0 1 12,16.76 5.5,5.5 0 0 1 9.25,12 5.5,5.5 0 0 1 12.01,7.24 Z"
     id="path5"
     inkscape:connector-curvature="0"
     style="color:#dfdfdf;fill:#ff7f2a;stroke-width:1.38" />
</svg>
